X:1
T:Title
%%score 1 2
L:1/8
Q:1/4=68
M:6/8
K:Bb
V:1 treble nm="Strings 1, Soprano"
V:2 bass nm="Strings 1, Bass"
V:1
 [Fd][Ec][DB] [Ec][EB][EG] | [DF]3 [B,D]2 [DF] | [EG][GB][Ge] [Fd][Fc][FB] | [Fc]6 | %4
w: 1.~Down~ from~ the~ por tals~ of~|glo ry~ A~|King~ in~ His~ ma jes ty~|came,~|
 [Fd][Ec][DB] [Ec][EB][EG] | [DF]3 [B,D]2 [DF] | [EG][GB][Ge] [Fd][Fd][Ec] | [DB]6 | %8
w: Hum bled~ Him self~ as~ a~|ser vant,~ To~|bear~ our~ trans gres sions~ and~|shame;~|
 [Fc][Fc][Fc] [Fc][FB][FA] | [FB]3 [DF]3 | [Fd][Fd][Fd] [=Ed][Ec]G | [Fc]6 | %12
w: He~ was~ de spised~ and~ re|ject ed,~|Hat ed~ by~ those~ He~ would~|save,~|
 [Fd][Ec][DB] [Ec][EB][EG] | [DF]3 [B,D]2 [DF] | [EG][GB][Ge] [Fd][Fd][Q:1/4=68][Ec][Q:1/4=12] | %15
w: Yet~ He~ so~ loved~ guilt y~|sin ners,~ That~|free ly~ His~ life blood~ He~|
 [DB]6 | [DB]3- [DB][FA][EG] | [DF]3 .[DB]3 | [Fd]3- [Fd][Ec][DB] | [Fc]6 | %20
w: gave.~|||||
 [Fd][Ec][DB] [Ec][EB][EG] | [DF]3 [B,D]2 [DF] | [EG][GB][Ge] [Fd][Fd][Q:1/4=68][Ec][Q:1/4=12] | %23
w: In He~ so~ loved~ guilt y~|sin ners,~ That~|free ly~ His~ life blood~ He~|
 [DB]6 |] %24
w: gave.~|
V:2
 [B,,B,][B,,B,][B,,B,] [E,G,][E,G,][E,B,] | [B,,B,]3 [B,,F,]2 [B,,B,] | %2
 [E,B,][E,B,][E,B,] [B,,B,][C,A,][D,B,] | [F,A,]6 | [B,,B,][B,,B,][B,,B,] [E,G,][E,G,][E,B,] | %5
 [B,,B,]3 [B,,F,]2 [B,,B,] | [E,B,][E,B,][E,B,] [F,B,][F,B,][F,A,] | [B,,B,]6 | %8
 [F,E][F,E][F,E] [F,E][F,D][F,C] | [B,,D]3 [B,,B,]3 | [B,,B,][B,,B,][B,,B,] [C,G,][C,G,][=E,B,] | %11
 [F,A,]6 | [B,,B,][B,,B,][B,,B,] [E,G,][E,G,][E,B,] | [B,,B,]3 [B,,F,]2 [B,,B,] | %14
 [E,B,][E,B,][E,B,] [F,B,][F,B,][F,A,] | [B,,B,]6 | [B,,F,][B,,F,][B,,F,] .[B,,F,]3 | %17
 [B,,B,][B,,B,][B,,B,] .[B,,F,]3 | [B,,B,][B,,B,][B,,B,] .[B,,B,]3 | [F,A,][F,A,][F,A,] .[F,A,]3 | %20
 [B,,B,][B,,B,][B,,B,] [E,G,][E,G,][E,B,] | [B,,B,]3 [B,,F,]2 [B,,B,] | %22
 [E,B,][E,B,][E,B,] [F,B,][F,B,][F,A,] | [B,,B,]6 |] %24

